X:3
T:Frisky Jim
M:2/4
L:1/16
Z:jason
B: From Bob Walters, 1949
K:A
A,A, | A,B,CB, C2E2 | A2cA BAFD | E2FG ABce | afed cAEC |
A,B,CB, C2E2 | A2cA BAFD | E2FG ABce | afec A2 :|
|: (3(efg) | a2ab afea | fecA BAFA | agab afea | fb2b b2(3(efg) |
a2ab afea | fecA BAFD | E2FG ABce | afec A2 :|

